svg/bike_pedal_mountain.svg

<svg xmlns="http://www.w3.org/2000/svg" viewBox="0 0 24 24"><path d="M6.82 5a2 2 0 0 0-1.96 1.61l-.82 4.1c-.04.13-.04.26-.04.39v1.8c0 .13 0 .26.04.39l.82 4.1A2 2 0 0 0 6.82 19h6.56a2 2 0 0 0 1.79-1.11l1.62-3.23q.15-.315.21-.66h1v-1h2v-2h-2v-1h-1a2.5 2.5 0 0 0-.21-.66l-1.62-3.23A2 2 0 0 0 13.38 5zm0 2h.56l2.5 5-2.5 5h-.56L6 12.9v-1.8zm4.8 4-2-4h3.76L15 10.24V11zm0 2H15v.76L13.38 17H9.62z"/></svg>

<svg xmlns="http://www.w3.org/2000/svg" id="mdi-bike-pedal-mountain" viewBox="0 0 24 24"><path d="M6.82 5C5.87 5 5.05 5.67 4.86 6.61L4.04 10.71C4 10.84 4 10.97 4 11.1V12.9C4 13.03 4 13.16 4.04 13.29L4.86 17.39C5.05 18.33 5.87 19 6.82 19H13.38C14.14 19 14.83 18.57 15.17 17.89L16.79 14.66C16.89 14.45 16.96 14.23 17 14H18V13H20V11H18V10H17C16.96 9.77 16.89 9.55 16.79 9.34L15.17 6.11C14.83 5.43 14.14 5 13.38 5H6.82M6.82 7H7.38L9.88 12L7.38 17H6.82L6 12.9V11.1L6.82 7M11.62 11L9.62 7H13.38L15 10.24V11H11.62M11.62 13H15V13.76L13.38 17H9.62L11.62 13Z" /></svg>
